svg/target.svg

<?xml version="1.0" encoding="UTF-8"?>
<svg xmlns="http://www.w3.org/2000/svg" xmlns:xlink="http://www.w3.org/1999/xlink" width="32" height="32" viewBox="0 0 32 32">
<path fill-rule="nonzero" fill="rgb(0%, 0%, 0%)" fill-opacity="1" d="M 17.5 6.109375 L 17.5 3.085938 C 23.488281 3.789062 28.210938 8.511719 28.914062 14.5 L 25.890625 14.5 C 25.222656 10.171875 21.828125 6.777344 17.5 6.109375 M 6.109375 17.5 L 3.085938 17.5 C 3.789062 23.488281 8.511719 28.210938 14.5 28.914062 L 14.5 25.890625 C 10.171875 25.222656 6.777344 21.828125 6.109375 17.5 M 17.5 25.890625 L 17.5 28.914062 C 23.488281 28.210938 28.210938 23.488281 28.914062 17.5 L 25.890625 17.5 C 25.222656 21.828125 21.828125 25.222656 17.5 25.890625 M 14.5 6.109375 L 14.5 3.085938 C 8.511719 3.789062 3.789062 8.511719 3.085938 14.5 L 6.109375 14.5 C 6.777344 10.171875 10.171875 6.777344 14.5 6.109375 M 12 16 C 12 18.210938 13.789062 20 16 20 C 18.210938 20 20 18.210938 20 16 C 20 13.789062 18.210938 12 16 12 C 13.792969 12.003906 12.003906 13.792969 12 16 M 9 16 C 9 15.722656 8.777344 15.5 8.5 15.5 L 1.5 15.5 C 1.222656 15.5 1 15.722656 1 16 C 1 16.277344 1.222656 16.5 1.5 16.5 L 8.5 16.5 C 8.777344 16.5 9 16.277344 9 16 M 30.5 15.5 L 23.5 15.5 C 23.222656 15.5 23 15.722656 23 16 C 23 16.277344 23.222656 16.5 23.5 16.5 L 30.5 16.5 C 30.777344 16.5 31 16.277344 31 16 C 31 15.722656 30.777344 15.5 30.5 15.5 M 16 9 C 16.277344 9 16.5 8.777344 16.5 8.5 L 16.5 1.5 C 16.5 1.222656 16.277344 1 16 1 C 15.722656 1 15.5 1.222656 15.5 1.5 L 15.5 8.5 C 15.5 8.777344 15.722656 9 16 9 M 16 23 C 15.722656 23 15.5 23.222656 15.5 23.5 L 15.5 30.5 C 15.5 30.777344 15.722656 31 16 31 C 16.277344 31 16.5 30.777344 16.5 30.5 L 16.5 23.5 C 16.5 23.222656 16.277344 23 16 23 M 16 23 "/>
</svg>

<svg role="img" viewBox="0 0 32 32" height="32" width="32" xmlns="http://www.w3.org/2000/svg"><path d="M17.5 6.11V3.085A13.022 13.022 0 0 1 28.914 14.5h-3.023A10.038 10.038 0 0 0 17.5 6.11M6.11 17.5H3.085A13.022 13.022 0 0 0 14.5 28.914v-3.023A10.038 10.038 0 0 1 6.11 17.5m11.39 8.39v3.024A13.022 13.022 0 0 0 28.914 17.5h-3.023a10.038 10.038 0 0 1-8.391 8.39m-3-19.78V3.085A13.022 13.022 0 0 0 3.086 14.5h3.023A10.038 10.038 0 0 1 14.5 6.11M12 16c0 2.21 1.79 4 4 4s4-1.79 4-4-1.79-4-4-4a4.008 4.008 0 0 0-4 4m-3 0c0-.277-.223-.5-.5-.5h-7a.499.499 0 1 0 0 1h7c.277 0 .5-.223.5-.5m21.5-.5h-7a.499.499 0 1 0 0 1h7a.499.499 0 1 0 0-1M16 9c.277 0 .5-.223.5-.5v-7a.499.499 0 1 0-1 0v7c0 .277.223.5.5.5m0 14c-.277 0-.5.223-.5.5v7a.499.499 0 1 0 1 0v-7c0-.277-.223-.5-.5-.5m0 0"/></svg>
